X: 39774
T: Thank You Sean
R: reel
M: 4/4
K: Bminor
BEED EFGA|BEEB efge|fBBA BcdB|B=cAG FADA|
BGFG E2GA|BEEB efge|~f2Ba gBeg|fedf deed:|
|:~B3A Bcde|fBBA Beed|c2Fc cFc2-|-cdec dB{c}BA|F2BA Bcde|
fBBA Bcde|1 f2Bf-fBfg|fede edcd:|2 f2Bf-fBb2-|-bafa {f}edcd||

